resources/icons/20px/header-three.svg

<svg width="20" height="20" viewBox="0 0 20 20" fill="none" xmlns="http://www.w3.org/2000/svg">
<path fill-rule="evenodd" clip-rule="evenodd" d="M2 11V16C2 16.5523 1.55228 17 1 17C0.447715 17 0 16.5523 0 16V11V9V3C0 2.44772 0.447715 2 1 2C1.55228 2 2 2.44772 2 3V9H9V3C9 2.44772 9.44771 2 10 2C10.5523 2 11 2.44772 11 3V9V11V16C11 16.5523 10.5523 17 10 17C9.44771 17 9 16.5523 9 16V11H2ZM18.4577 14.6402C18.9453 14.7501 19.3234 15.0199 19.592 15.4594C19.8607 15.899 20 16.4285 20 17.0678C20 17.5274 19.9204 17.937 19.7612 18.2966C19.602 18.6562 19.3831 18.9659 19.1045 19.2157C18.8358 19.4654 18.5174 19.6552 18.1493 19.7951C17.7811 19.935 17.403 20.0049 16.995 20.0049C16.4975 20.0049 16.0697 19.925 15.7015 19.7651C15.3333 19.6053 15.0249 19.3755 14.7761 19.0858C14.5274 18.7961 14.3383 18.4365 14.209 18.0269C14.0796 17.6073 14.01 17.1477 14 16.6482H15.3831C15.3632 17.2277 15.4925 17.7172 15.7612 18.1068C16.0398 18.4964 16.4378 18.6862 16.9851 18.6862C17.4527 18.6862 17.8408 18.5364 18.1493 18.2367C18.4577 17.937 18.6169 17.5174 18.6169 16.9679C18.6169 16.5983 18.5473 16.2986 18.4179 16.0788C18.2886 15.859 18.1194 15.6892 17.9104 15.5793C17.7015 15.4694 17.4627 15.3995 17.204 15.3695C16.9453 15.3395 16.6766 15.3296 16.398 15.3395V14.1707C16.6169 14.1807 16.8458 14.1707 17.0746 14.1208C17.3035 14.0708 17.5025 13.9909 17.6816 13.881C17.8607 13.7711 18 13.6113 18.1095 13.4115C18.2189 13.2117 18.2687 12.9619 18.2687 12.6722C18.2687 12.2626 18.1493 11.933 17.9005 11.6832C17.6517 11.4335 17.3333 11.3136 16.9453 11.3136C16.7065 11.3136 16.4975 11.3735 16.3184 11.4834C16.1393 11.5933 15.99 11.7431 15.8706 11.933C15.7512 12.1228 15.6716 12.3326 15.6119 12.5623C15.5622 12.7921 15.5323 13.0319 15.5423 13.2816H14.1592C14.1692 12.8121 14.2488 12.3825 14.3881 11.9829C14.5274 11.5833 14.7164 11.2337 14.9552 10.9439C15.194 10.6442 15.4826 10.4145 15.8209 10.2546C16.1592 10.0848 16.5473 10.0049 16.9751 10.0049C17.3035 10.0049 17.6318 10.0548 17.9502 10.1647C18.2687 10.2746 18.5572 10.4345 18.8159 10.6442C19.0746 10.854 19.2836 11.1138 19.4328 11.4434C19.5821 11.7631 19.6617 12.1427 19.6617 12.5623C19.6617 13.0418 19.5721 13.4714 19.3731 13.8311C19.1741 14.1907 18.8756 14.4604 18.4577 14.6203V14.6402Z" fill="black"/>
</svg>

<svg xmlns="http://www.w3.org/2000/svg" viewBox="0 0 20 20">
  <path d="M2 11v5a1 1 0 1 1-2 0V3a1 1 0 0 1 2 0v6h7V3a1 1 0 1 1 2 0v13a1 1 0 1 1-2 0v-5zm16.458 3.64c.487.11.865.38 1.134.82s.408.968.408 1.608q0 .69-.239 1.229-.239.542-.656.919c-.27.25-.588.44-.956.58s-.746.209-1.154.209c-.498 0-.925-.08-1.294-.24a2.54 2.54 0 0 1-.925-.68 3 3 0 0 1-.567-1.058q-.195-.63-.209-1.379h1.383c-.02.58.11 1.07.378 1.459.279.39.677.58 1.224.58q.702 0 1.164-.45c.309-.3.468-.72.468-1.27 0-.369-.07-.668-.2-.888-.128-.22-.298-.39-.507-.5a2 2 0 0 0-.706-.21 5.4 5.4 0 0 0-.806-.03v-1.168c.219.01.448 0 .677-.05s.428-.13.607-.24.318-.27.428-.47.159-.45.159-.739q.002-.614-.368-.989c-.25-.25-.568-.37-.956-.37-.239 0-.448.06-.627.17q-.268.165-.447.45c-.12.19-.2.4-.26.63-.049.23-.079.469-.069.719H14.16c.01-.47.09-.9.23-1.3.138-.399.327-.748.566-1.038q.359-.45.866-.69c.338-.17.726-.25 1.154-.25.328 0 .657.05.975.16q.478.165.866.48c.259.21.468.47.617.8.15.32.229.699.229 1.118 0 .48-.09.91-.289 1.27a1.7 1.7 0 0 1-.915.788z"/>
</svg>
